img/proble-title.svg

<svg width="126" height="68" viewBox="0 0 126 68" fill="none" xmlns="http://www.w3.org/2000/svg">
<mask id="mask0_1_1324" style="mask-type:alpha" maskUnits="userSpaceOnUse" x="0" y="0" width="126" height="68">
<rect width="125.422" height="68" rx="10" fill="#212121"/>
</mask>
<g mask="url(#mask0_1_1324)">
<ellipse cx="118.889" cy="64.3676" rx="35.7976" ry="35.8308" fill="#3F9D83"/>
<ellipse cx="45.9305" cy="75.3233" rx="32.4007" ry="32.4308" fill="#D9C842"/>
<g filter="url(#filter0_d_1_1324)">
<ellipse cx="-9.66844" cy="50.7676" rx="31.0943" ry="31.1231" fill="#D78C46"/>
</g>
<g filter="url(#filter1_d_1_1324)">
<ellipse cx="9.37679" cy="68.2615" rx="34.2298" ry="34.2615" fill="#3F9D83"/>
</g>
<g opacity="0.6">
<path d="M42.4792 48.8351L46.646 56.1551C47.1211 56.9903 47.0885 57.9278 46.1954 58.2356C45.5138 58.4705 44.4045 58.3023 44.0412 57.6653L39.8642 50.3509C39.3859 49.5125 40.2399 48.287 41.137 47.9779C41.8214 47.742 42.1147 48.1946 42.4792 48.8351Z" fill="#212121"/>
<path d="M48.5782 49.5953L52.7457 56.9153C53.2208 57.7503 53.1879 58.6879 52.2948 58.9957C51.6132 59.2306 50.5041 59.0623 50.1402 58.4255L45.9638 51.1109C45.485 50.2727 46.3393 49.0471 47.2361 48.7381C47.921 48.502 48.2137 48.9548 48.5782 49.5953Z" fill="#212121"/>
</g>
<g opacity="0.8">
<path d="M13.5695 57.0722L18.4341 48.5263C18.9888 47.5512 18.9507 46.4567 17.908 46.0973C17.1123 45.8231 15.8172 46.0195 15.393 46.7632L10.5166 55.3025C9.95821 56.2813 10.9551 57.712 12.0025 58.0729C12.8015 58.3483 13.1439 57.8198 13.5695 57.0722Z" fill="#212121"/>
<path d="M20.6899 56.1845L25.5553 47.6386C26.1099 46.6637 26.0715 45.5692 25.0289 45.2098C24.2332 44.9356 22.9383 45.132 22.5135 45.8755L17.6377 54.415C17.0787 55.3936 18.076 56.8244 19.123 57.1853C19.9227 57.4609 20.2644 56.9322 20.6899 56.1845Z" fill="#212121"/>
</g>
<path opacity="0.8" d="M105.778 52.7251C113.592 56.2788 117.845 55.3331 125.195 48.2957" stroke="#212121" stroke-width="3" stroke-linecap="round"/>
<g filter="url(#filter2_d_1_1324)">
<ellipse cx="78.128" cy="69.8306" rx="31.0943" ry="31.1231" fill="#3F9D83"/>
</g>
<g filter="url(#filter3_d_1_1324)">
<ellipse cx="118.628" cy="76.8922" rx="22.4715" ry="22.4923" fill="#D9C842"/>
</g>
<g opacity="0.4">
<path d="M119.14 68.8945L115.726 62.8975C115.337 62.2132 115.364 61.4451 116.095 61.193C116.654 61.0005 117.562 61.1384 117.86 61.6602L121.282 67.6527C121.674 68.3396 120.974 69.3435 120.239 69.5968C119.679 69.7901 119.438 69.4192 119.14 68.8945Z" fill="#212121"/>
<path d="M114.144 68.2718L110.729 62.2748C110.34 61.5907 110.367 60.8225 111.099 60.5704C111.657 60.3779 112.566 60.5158 112.864 61.0375L116.286 67.0301C116.678 67.7168 115.978 68.7209 115.243 68.9741C114.682 69.1675 114.442 68.7965 114.144 68.2718Z" fill="#212121"/>
</g>
<path d="M4.5332 57.8C9.82121 64.8905 14.0297 66.0717 23.7999 63.0889" stroke="#273A35" stroke-width="3" stroke-linecap="round"/>
<path opacity="0.8" d="M64.9775 58.1777C70.2655 65.2682 74.474 66.4494 84.2442 63.4666" stroke="#212121" stroke-width="3" stroke-linecap="round"/>
</g>
<defs>
<filter id="filter0_d_1_1324" x="-61.7627" y="-6.35547" width="110.188" height="110.246" filterUnits="userSpaceOnUse" color-interpolation-filters="sRGB">
<feFlood flood-opacity="0" result="BackgroundImageFix"/>
<feColorMatrix in="SourceAlpha" type="matrix" values="0 0 0 0 0 0 0 0 0 0 0 0 0 0 0 0 0 0 127 0" result="hardAlpha"/>
<feOffset dx="3" dy="-2"/>
<feGaussianBlur stdDeviation="12"/>
<feComposite in2="hardAlpha" operator="out"/>
<feColorMatrix type="matrix" values="0 0 0 0 0 0 0 0 0 0 0 0 0 0 0 0 0 0 0.25 0"/>
<feBlend mode="normal" in2="BackgroundImageFix" result="effect1_dropShadow_1_1324"/>
<feBlend mode="normal" in="SourceGraphic" in2="effect1_dropShadow_1_1324" result="shape"/>
</filter>
<filter id="filter1_d_1_1324" x="-45.853" y="8" width="116.459" height="116.523" filterUnits="userSpaceOnUse" color-interpolation-filters="sRGB">
<feFlood flood-opacity="0" result="BackgroundImageFix"/>
<feColorMatrix in="SourceAlpha" type="matrix" values="0 0 0 0 0 0 0 0 0 0 0 0 0 0 0 0 0 0 127 0" result="hardAlpha"/>
<feOffset dx="3" dy="-2"/>
<feGaussianBlur stdDeviation="12"/>
<feComposite in2="hardAlpha" operator="out"/>
<feColorMatrix type="matrix" values="0 0 0 0 0 0 0 0 0 0 0 0 0 0 0 0 0 0 0.25 0"/>
<feBlend mode="normal" in2="BackgroundImageFix" result="effect1_dropShadow_1_1324"/>
<feBlend mode="normal" in="SourceGraphic" in2="effect1_dropShadow_1_1324" result="shape"/>
</filter>
<filter id="filter2_d_1_1324" x="26.0337" y="12.7075" width="110.188" height="110.246" filterUnits="userSpaceOnUse" color-interpolation-filters="sRGB">
<feFlood flood-opacity="0" result="BackgroundImageFix"/>
<feColorMatrix in="SourceAlpha" type="matrix" values="0 0 0 0 0 0 0 0 0 0 0 0 0 0 0 0 0 0 127 0" result="hardAlpha"/>
<feOffset dx="3" dy="-2"/>
<feGaussianBlur stdDeviation="12"/>
<feComposite in2="hardAlpha" operator="out"/>
<feColorMatrix type="matrix" values="0 0 0 0 0 0 0 0 0 0 0 0 0 0 0 0 0 0 0.25 0"/>
<feBlend mode="normal" in2="BackgroundImageFix" result="effect1_dropShadow_1_1324"/>
<feBlend mode="normal" in="SourceGraphic" in2="effect1_dropShadow_1_1324" result="shape"/>
</filter>
<filter id="filter3_d_1_1324" x="75.1567" y="28.3999" width="92.9429" height="92.9846" filterUnits="userSpaceOnUse" color-interpolation-filters="sRGB">
<feFlood flood-opacity="0" result="BackgroundImageFix"/>
<feColorMatrix in="SourceAlpha" type="matrix" values="0 0 0 0 0 0 0 0 0 0 0 0 0 0 0 0 0 0 127 0" result="hardAlpha"/>
<feOffset dx="3" dy="-2"/>
<feGaussianBlur stdDeviation="12"/>
<feComposite in2="hardAlpha" operator="out"/>
<feColorMatrix type="matrix" values="0 0 0 0 0 0 0 0 0 0 0 0 0 0 0 0 0 0 0.25 0"/>
<feBlend mode="normal" in2="BackgroundImageFix" result="effect1_dropShadow_1_1324"/>
<feBlend mode="normal" in="SourceGraphic" in2="effect1_dropShadow_1_1324" result="shape"/>
</filter>
</defs>
</svg>

<svg width="126" height="68" fill="none" xmlns="http://www.w3.org/2000/svg"><mask id="a" style="mask-type:alpha" maskUnits="userSpaceOnUse" x="0" y="0" width="126" height="68"><rect width="125.422" height="68" rx="10" fill="#212121"/></mask><g mask="url(#a)"><ellipse cx="118.889" cy="64.368" rx="35.798" ry="35.831" fill="#3F9D83"/><ellipse cx="45.931" cy="75.323" rx="32.401" ry="32.431" fill="#D9C842"/><g filter="url(#b)"><ellipse cx="-9.668" cy="50.768" rx="31.094" ry="31.123" fill="#D78C46"/></g><g filter="url(#c)"><ellipse cx="9.377" cy="68.261" rx="34.23" ry="34.261" fill="#3F9D83"/></g><g opacity=".6" fill="#212121"><path d="m42.48 48.835 4.166 7.32c.475.835.443 1.773-.45 2.08-.682.236-1.791.067-2.155-.57l-4.177-7.314c-.478-.838.376-2.064 1.273-2.373.684-.236.978.217 1.342.857ZM48.578 49.595l4.168 7.32c.475.835.442 1.773-.451 2.08-.682.236-1.79.067-2.155-.57l-4.176-7.314c-.479-.838.375-2.064 1.272-2.373.685-.236.978.217 1.342.857Z"/></g><g opacity=".8" fill="#212121"><path d="m13.57 57.072 4.864-8.546c.555-.975.517-2.07-.526-2.429-.796-.274-2.09-.078-2.515.666l-4.876 8.54c-.559.978.438 2.409 1.486 2.77.799.275 1.14-.253 1.566-1ZM20.69 56.184l4.865-8.545c.555-.975.517-2.07-.526-2.43-.796-.273-2.09-.077-2.515.666l-4.876 8.54c-.56.979.438 2.41 1.485 2.77.8.276 1.141-.253 1.567-1Z"/></g><path opacity=".8" d="M105.778 52.725c7.814 3.554 12.067 2.608 19.417-4.43" stroke="#212121" stroke-width="3" stroke-linecap="round"/><g filter="url(#d)"><ellipse cx="78.128" cy="69.831" rx="31.094" ry="31.123" fill="#3F9D83"/></g><g filter="url(#e)"><ellipse cx="118.628" cy="76.892" rx="22.471" ry="22.492" fill="#D9C842"/></g><g opacity=".4" fill="#212121"><path d="m119.14 68.894-3.414-5.997c-.389-.684-.362-1.452.369-1.704.559-.192 1.467-.055 1.765.467l3.422 5.993c.392.687-.308 1.69-1.043 1.944-.56.193-.801-.178-1.099-.703ZM114.144 68.272l-3.415-5.997c-.389-.684-.362-1.453.37-1.705.558-.192 1.467-.054 1.765.468l3.422 5.992c.392.687-.308 1.69-1.043 1.944-.561.194-.801-.178-1.099-.702Z"/></g><path d="M4.533 57.8c5.288 7.09 9.497 8.272 19.267 5.289" stroke="#273A35" stroke-width="3" stroke-linecap="round"/><path opacity=".8" d="M64.978 58.178c5.288 7.09 9.496 8.271 19.266 5.289" stroke="#212121" stroke-width="3" stroke-linecap="round"/></g><defs><filter id="b" x="-61.763" y="-6.355" width="110.188" height="110.246" filterUnits="userSpaceOnUse" color-interpolation-filters="sRGB"><feFlood flood-opacity="0" result="BackgroundImageFix"/><feColorMatrix in="SourceAlpha" values="0 0 0 0 0 0 0 0 0 0 0 0 0 0 0 0 0 0 127 0" result="hardAlpha"/><feOffset dx="3" dy="-2"/><feGaussianBlur stdDeviation="12"/><feComposite in2="hardAlpha" operator="out"/><feColorMatrix values="0 0 0 0 0 0 0 0 0 0 0 0 0 0 0 0 0 0 0.25 0"/><feBlend in2="BackgroundImageFix" result="effect1_dropShadow_1_1324"/><feBlend in="SourceGraphic" in2="effect1_dropShadow_1_1324" result="shape"/></filter><filter id="c" x="-45.853" y="8" width="116.459" height="116.523" filterUnits="userSpaceOnUse" color-interpolation-filters="sRGB"><feFlood flood-opacity="0" result="BackgroundImageFix"/><feColorMatrix in="SourceAlpha" values="0 0 0 0 0 0 0 0 0 0 0 0 0 0 0 0 0 0 127 0" result="hardAlpha"/><feOffset dx="3" dy="-2"/><feGaussianBlur stdDeviation="12"/><feComposite in2="hardAlpha" operator="out"/><feColorMatrix values="0 0 0 0 0 0 0 0 0 0 0 0 0 0 0 0 0 0 0.25 0"/><feBlend in2="BackgroundImageFix" result="effect1_dropShadow_1_1324"/><feBlend in="SourceGraphic" in2="effect1_dropShadow_1_1324" result="shape"/></filter><filter id="d" x="26.034" y="12.707" width="110.188" height="110.246" filterUnits="userSpaceOnUse" color-interpolation-filters="sRGB"><feFlood flood-opacity="0" result="BackgroundImageFix"/><feColorMatrix in="SourceAlpha" values="0 0 0 0 0 0 0 0 0 0 0 0 0 0 0 0 0 0 127 0" result="hardAlpha"/><feOffset dx="3" dy="-2"/><feGaussianBlur stdDeviation="12"/><feComposite in2="hardAlpha" operator="out"/><feColorMatrix values="0 0 0 0 0 0 0 0 0 0 0 0 0 0 0 0 0 0 0.25 0"/><feBlend in2="BackgroundImageFix" result="effect1_dropShadow_1_1324"/><feBlend in="SourceGraphic" in2="effect1_dropShadow_1_1324" result="shape"/></filter><filter id="e" x="75.157" y="28.4" width="92.943" height="92.985" filterUnits="userSpaceOnUse" color-interpolation-filters="sRGB"><feFlood flood-opacity="0" result="BackgroundImageFix"/><feColorMatrix in="SourceAlpha" values="0 0 0 0 0 0 0 0 0 0 0 0 0 0 0 0 0 0 127 0" result="hardAlpha"/><feOffset dx="3" dy="-2"/><feGaussianBlur stdDeviation="12"/><feComposite in2="hardAlpha" operator="out"/><feColorMatrix values="0 0 0 0 0 0 0 0 0 0 0 0 0 0 0 0 0 0 0.25 0"/><feBlend in2="BackgroundImageFix" result="effect1_dropShadow_1_1324"/><feBlend in="SourceGraphic" in2="effect1_dropShadow_1_1324" result="shape"/></filter></defs></svg>
